X:2044
T:Polsk 
T:(Totakt-pols, nr. JH-10)
S:efter Jens Holm, notbok på Dansk Folkmindessamling
O:Solkjær, Grarup, Haderslev amt (Danmark)
R:Totakt-pols
Z:Åke Persson 2011-06-26
M:2/4
L:1/8
Q:1/4=100
K:D
|: df d2 | eg e2 | cABc | dAFD | df d2 | eg e2 | cABc | d2 d2 :|
|: fgaf | gabg | fgaf | gabg | df d2 | eg e2 | cABc | d2 d2 :|
(:musicend:)


(:music:)
